svg/l/AL.svg

<svg width="32" height="24" viewBox="0 0 32 24" fill="none" xmlns="http://www.w3.org/2000/svg">
<mask id="mask0" mask-type="alpha" maskUnits="userSpaceOnUse" x="0" y="0" width="32" height="24">
<rect width="32" height="24" fill="white"/>
</mask>
<g mask="url(#mask0)">
<path fill-rule="evenodd" clip-rule="evenodd" d="M0 0H32V24H0V0Z" fill="#F50100"/>
<path fill-rule="evenodd" clip-rule="evenodd" d="M16.5 6.2236C16.5679 6.20977 16.7378 6.11621 17.1028 5.63663C17.3256 5.34386 17.3155 4.99098 17.3066 4.68485C17.2951 4.28362 17.2858 3.96271 17.8065 3.96271C18.2333 3.96271 18.5496 3.84018 18.8144 3.73755C19.1192 3.61945 19.356 3.5277 19.615 3.67932C20.032 3.92348 20.5236 3.95728 20.5233 3.96196C20.5233 3.96271 20.5106 3.96271 20.4828 3.96271C20.282 3.96271 19.5606 4.37347 20.1184 4.37347C20.3913 4.37347 20.6825 4.1769 20.9087 4.02414C21.1449 3.86462 21.3104 3.75289 21.3104 3.96271C21.3104 3.96271 21.4691 4.4264 21.086 4.46158C21.086 4.46158 19.3578 4.63047 19.6955 4.70642C19.6955 4.70642 20.003 4.83314 20.2135 4.84085C20.2135 4.84085 20.3046 5.16107 19.7446 5.24973C19.7446 5.24973 18.1617 5.54362 18.0893 6.05223C18.0711 6.17992 18.0259 6.34779 17.9776 6.52762C17.8334 7.0641 17.6605 7.70702 18.0893 7.70702C18.6617 7.70702 19.0335 7.31496 19.0335 6.87442C19.0335 6.43388 19.1112 5.68973 19.615 5.6535C19.615 5.6535 20.8535 5.2353 21.0071 5.264C21.065 5.27483 21.0619 5.31285 21.0583 5.35601C21.0525 5.4273 21.0455 5.51261 21.3104 5.51261C21.7357 5.51261 22.9681 4.49088 23.1621 4.0851C23.3561 3.67932 23.6475 4.0851 23.6475 4.0851C23.6475 4.0851 23.835 5.22103 22.8586 5.63663C21.8822 6.05223 21.3104 6.05223 21.3104 6.05223C21.3104 6.05223 20.7015 6.49999 21.086 6.49999C21.1713 6.49999 21.2781 6.50775 21.3988 6.51653C21.8221 6.54731 22.4169 6.59056 22.8586 6.35498C22.9805 6.28994 23.0865 6.23107 23.1777 6.18039C23.511 5.99513 23.6475 5.91931 23.6475 6.05223V6.05498C23.6475 6.23151 23.6476 7.17109 22.9974 7.17109H21.3104C21.086 7.17109 20.5547 7.49073 21.4373 7.70702C22.3199 7.92331 22.6044 7.83293 22.9974 7.70702C23.3903 7.58112 23.6475 7.5096 23.6475 7.70702C23.6475 7.90445 23.1085 8.64306 22.6454 8.64306C22.3741 8.64306 22.0854 8.5023 21.8463 8.38573C21.6773 8.30334 21.5331 8.23303 21.4373 8.23303C21.206 8.23303 20.9661 8.64306 21.086 8.64306C21.1249 8.64306 21.1931 8.70564 21.2851 8.79022C21.4769 8.96646 21.7727 9.23821 22.1246 9.23821C22.4118 9.23821 22.6356 9.17958 22.8364 9.12698C22.9998 9.08418 23.148 9.04537 23.3027 9.04537C23.5024 9.04537 23.5864 9.02132 23.6218 9.05249C23.6475 9.07513 23.6475 9.12691 23.6475 9.23821C23.6475 9.50273 22.9595 9.79456 22.6454 9.79456C22.5026 9.79456 22.151 9.63795 21.81 9.48605C21.4009 9.30386 21.0071 9.12844 21.0071 9.23821C21.0071 9.43949 21.8368 10.522 22.3477 10.522H23.3027C23.6475 10.522 23.5106 10.9598 23.5106 10.9598C23.5106 10.9598 23.1768 11.2565 22.7622 11.2565C22.4514 11.2565 22.1447 11.021 21.9047 10.8366C21.8246 10.7751 21.7519 10.7193 21.6889 10.6798C21.4373 10.522 21.086 10.3998 21.086 10.6798C21.086 10.9598 21.8792 12.0786 22.5206 12.0786C22.7769 12.0786 23.0082 12.0374 23.1937 12.0044C23.4724 11.9548 23.6475 11.9236 23.6475 12.0786C23.6475 12.3367 23.3493 12.9114 22.9974 12.7844L22.9898 12.7817C22.6299 12.6519 21.5332 12.2563 21.3104 11.8362C21.086 11.4133 20.6759 11.5939 20.8415 11.8362C21.0071 12.0786 21.8792 13.332 22.5206 13.4488C22.691 13.4798 22.8599 13.5004 23.0137 13.5192C23.439 13.5712 23.748 13.609 23.6475 13.8126C23.5106 14.09 22.9431 14.4774 22.6454 14.3554C22.3477 14.2333 21.3306 13.2984 21.086 12.9086C20.8415 12.5188 20.2135 11.7726 20.2135 12.0786C20.2135 12.144 20.2019 12.2335 20.1887 12.335C20.1401 12.7086 20.0704 13.2444 20.4828 13.3344C21.0071 13.4488 21.2833 13.9536 21.0071 13.9536C20.7308 13.9536 19.7446 13.7171 19.7446 13.0915C19.7446 12.4659 19.2985 12.1147 19.2985 12.2903C19.2985 12.3103 19.298 12.3348 19.2973 12.3631C19.2921 12.5837 19.2814 13.0333 19.499 13.3344C19.7445 13.674 19.3966 13.9513 19.2985 13.8126C19.2005 13.674 18.7801 13.0328 18.7801 12.9086C18.7801 12.7844 18.6318 12.4929 18.4574 12.4929C18.283 12.4929 18.248 12.7968 18.5743 13.4488C18.9006 14.1008 19.7051 14.6221 19.9593 14.6221C20.2135 14.6221 19.9593 15.2068 19.9593 15.2068L21.6889 15.6548C21.6889 15.6548 22.3477 15.3152 22.3477 15.2068C22.3477 15.0983 22.692 14.8341 22.9974 14.8341C23.3027 14.8341 23.3269 15.2068 23.1621 15.2068C23.0807 15.2068 22.9654 15.2764 22.8487 15.347C22.7292 15.4192 22.6082 15.4924 22.5206 15.4924C22.3477 15.4924 21.819 15.8622 21.819 15.8622H22.9974C22.9974 15.8622 22.8087 15.6548 23.3027 15.6548C23.7966 15.6548 24 15.8622 24 15.8622C24 15.8622 23.4432 16.1889 23.3027 16.1889C23.2672 16.1889 23.2224 16.1962 23.1668 16.2052C23.0846 16.2186 22.9788 16.2358 22.8442 16.2391C22.8064 16.211 22.7841 16.2172 22.7712 16.2394C22.6513 16.2376 22.5111 16.2242 22.3477 16.1889C21.819 16.0748 22.7622 16.426 22.7622 16.426C22.7622 16.426 22.7417 16.2904 22.7712 16.2394C22.7964 16.2398 22.8207 16.2396 22.8442 16.2391C22.8799 16.2656 22.9293 16.3228 22.9974 16.426C23.3027 16.889 23.3493 17.0331 22.9974 17.0331C22.6454 17.0331 22.3477 16.926 22.3477 16.676C22.3477 16.426 21.6889 16.1889 21.6889 16.1889L20.8415 16.676C20.8415 16.676 20.9997 16.9476 20.7412 17.0331C20.4828 17.1187 20.1184 16.993 20.1184 16.9075C20.1184 16.8219 20.2039 16.426 20.4235 16.426C20.6431 16.426 21.3104 16.0632 21.3104 16.0632L19.6955 15.5808C19.6955 15.5808 19.2432 16.0632 19.0945 16.0632C19.0183 16.0632 18.8685 15.7552 18.7049 15.4188C18.5491 15.0984 18.3808 14.7522 18.2517 14.6221C18.1708 14.5405 18.099 14.4323 18.0296 14.3276C17.8721 14.09 17.7267 13.8709 17.5142 14.0236C17.2081 14.2436 17.0865 14.9215 17.5142 15.4924C17.9419 16.0632 18.682 16.5142 18.8882 16.5142C19.0945 16.5142 19.499 16.5337 19.499 16.676C19.499 16.8184 19.3191 17.4013 18.8882 17.1544C18.8028 17.1054 18.7162 17.0545 18.6318 17.0049C18.2903 16.8042 17.9839 16.6241 17.9314 16.676C17.866 16.7408 18.1353 17.475 18.5118 17.6502C18.6771 17.7271 18.8306 17.7215 18.9508 17.7171C19.1042 17.7115 19.2032 17.7078 19.2032 17.8806C19.2032 18.1886 18.9372 18.5319 18.4574 18.2063C18.2454 18.0624 18.0705 17.8728 17.9337 17.7247C17.761 17.5376 17.6492 17.4165 17.6009 17.537C17.5142 17.7528 17.551 18.5961 17.9314 18.5961C18.019 18.5961 18.1003 18.5932 18.1736 18.5907C18.4187 18.5821 18.5743 18.5767 18.5743 18.6911C18.5743 18.8398 18.4865 19.4736 18.0893 19.2207C17.692 18.9678 17.4015 18.6526 17.3305 18.4294C17.2595 18.2063 16.8354 18.4286 16.9691 18.7424C17.1028 19.0562 17.4276 19.6887 17.5142 19.6887C17.6009 19.6887 16.507 21.6 16.507 21.6L16.5 19.2469L16.493 21.6C16.493 21.6 15.3991 19.6887 15.4858 19.6887C15.5724 19.6887 15.8972 19.0562 16.0309 18.7424C16.1646 18.4286 15.7405 18.2063 15.6695 18.4294C15.5985 18.6526 15.308 18.9678 14.9107 19.2207C14.5135 19.4736 14.4257 18.8398 14.4257 18.6911C14.4257 18.5767 14.5813 18.5821 14.8264 18.5907C14.8997 18.5932 14.981 18.5961 15.0686 18.5961C15.449 18.5961 15.4858 17.7528 15.3991 17.537C15.3508 17.4165 15.239 17.5376 15.0663 17.7247C14.9295 17.8728 14.7546 18.0624 14.5426 18.2063C14.0628 18.5319 13.7968 18.1886 13.7968 17.8806C13.7968 17.7078 13.8958 17.7115 14.0492 17.7171C14.1694 17.7215 14.3229 17.7271 14.4882 17.6502C14.8647 17.475 15.134 16.7408 15.0686 16.676C15.0161 16.6241 14.7097 16.8042 14.3682 17.0049C14.2838 17.0545 14.1972 17.1054 14.1118 17.1544C13.6809 17.4013 13.501 16.8184 13.501 16.676C13.501 16.5337 13.9055 16.5142 14.1118 16.5142C14.318 16.5142 15.0581 16.0632 15.4858 15.4924C15.9135 14.9215 15.7919 14.2436 15.4858 14.0236C15.2733 13.8709 15.1279 14.09 14.9704 14.3276C14.901 14.4323 14.8292 14.5405 14.7483 14.6221C14.6192 14.7522 14.4509 15.0984 14.2951 15.4188C14.1315 15.7552 13.9817 16.0632 13.9055 16.0632C13.7568 16.0632 13.3045 15.5808 13.3045 15.5808L11.6896 16.0632C11.6896 16.0632 12.3569 16.426 12.5765 16.426C12.7961 16.426 12.8816 16.8219 12.8816 16.9075C12.8816 16.993 12.5172 17.1187 12.2588 17.0331C12.0003 16.9476 12.1585 16.676 12.1585 16.676L11.3111 16.1889C11.3111 16.1889 10.6523 16.426 10.6523 16.676C10.6523 16.926 10.3546 17.0331 10.0026 17.0331C9.65071 17.0331 9.69733 16.889 10.0026 16.426C10.0707 16.3228 10.1201 16.2656 10.1558 16.2391C10.1793 16.2396 10.2036 16.2398 10.2288 16.2394C10.2583 16.2904 10.2378 16.426 10.2378 16.426C10.2378 16.426 11.181 16.0748 10.6523 16.1889C10.4889 16.2242 10.3487 16.2376 10.2288 16.2394C10.2159 16.2172 10.1935 16.211 10.1558 16.2391C10.0212 16.2358 9.91538 16.2186 9.83321 16.2052C9.7776 16.1962 9.73283 16.1889 9.69733 16.1889C9.55679 16.1889 9 15.8622 9 15.8622C9 15.8622 9.20337 15.6548 9.69733 15.6548C10.1913 15.6548 10.0026 15.8622 10.0026 15.8622H11.181C11.181 15.8622 10.6523 15.4924 10.4794 15.4924C10.3918 15.4924 10.2708 15.4192 10.1513 15.347C10.0346 15.2764 9.91926 15.2068 9.83787 15.2068C9.67309 15.2068 9.69733 14.8341 10.0026 14.8341C10.308 14.8341 10.6523 15.0983 10.6523 15.2068C10.6523 15.3152 11.3111 15.6548 11.3111 15.6548L13.0407 15.2068C13.0407 15.2068 12.7865 14.6221 13.0407 14.6221C13.2949 14.6221 14.0994 14.1008 14.4257 13.4488C14.752 12.7968 14.717 12.4929 14.5426 12.4929C14.3682 12.4929 14.2199 12.7844 14.2199 12.9086C14.2199 13.0328 13.7995 13.674 13.7015 13.8126C13.6034 13.9513 13.2554 13.674 13.501 13.3344C13.7186 13.0333 13.7079 12.5837 13.7027 12.3631C13.702 12.3348 13.7015 12.3103 13.7015 12.2903C13.7015 12.1147 13.2554 12.4659 13.2554 13.0915C13.2554 13.7171 12.2692 13.9536 11.9929 13.9536C11.7167 13.9536 11.9929 13.4488 12.5172 13.3344C12.9296 13.2444 12.8599 12.7086 12.8113 12.335C12.7981 12.2335 12.7865 12.144 12.7865 12.0786C12.7865 11.7726 12.1585 12.5188 11.914 12.9086C11.6694 13.2984 10.6523 14.2333 10.3546 14.3554C10.0569 14.4774 9.48935 14.09 9.35253 13.8126C9.25204 13.609 9.561 13.5712 9.98634 13.5192C10.1401 13.5004 10.309 13.4798 10.4794 13.4488C11.1208 13.332 11.9929 12.0786 12.1585 11.8362C12.3241 11.5939 11.914 11.4133 11.6896 11.8362C11.4668 12.2563 10.3701 12.6519 10.0102 12.7817L10.0026 12.7844C9.65071 12.9114 9.35253 12.3367 9.35253 12.0786C9.35253 11.9236 9.52756 11.9548 9.80632 12.0044C9.99176 12.0374 10.2231 12.0786 10.4794 12.0786C11.1208 12.0786 11.914 10.9598 11.914 10.6798C11.914 10.3998 11.5627 10.522 11.3111 10.6798C11.2481 10.7193 11.1754 10.7751 11.0953 10.8366C10.8553 11.021 10.5486 11.2565 10.2378 11.2565C9.82322 11.2565 9.48935 10.9598 9.48935 10.9598C9.48935 10.9598 9.35253 10.522 9.69733 10.522H10.6523C11.1632 10.522 11.9929 9.43949 11.9929 9.23821C11.9929 9.12844 11.5991 9.30386 11.19 9.48605C10.849 9.63795 10.4974 9.79456 10.3546 9.79456C10.0405 9.79456 9.35253 9.50273 9.35253 9.23821C9.35253 9.12691 9.35253 9.07513 9.37822 9.05249C9.41358 9.02132 9.49761 9.04537 9.69733 9.04537C9.85202 9.04537 10.0002 9.08418 10.1636 9.12698C10.3644 9.17958 10.5882 9.23821 10.8754 9.23821C11.2273 9.23821 11.5231 8.96646 11.7149 8.79022C11.8069 8.70564 11.8751 8.64306 11.914 8.64306C12.0339 8.64306 11.794 8.23303 11.5627 8.23303C11.4669 8.23303 11.3227 8.30334 11.1537 8.38573C10.9146 8.5023 10.6259 8.64306 10.3546 8.64306C9.89148 8.64306 9.35253 7.90445 9.35253 7.70702C9.35253 7.5096 9.60974 7.58112 10.0026 7.70702C10.3956 7.83293 10.6801 7.92331 11.5627 7.70702C12.4453 7.49073 11.914 7.17109 11.6896 7.17109H10.0026C9.35241 7.17109 9.35251 6.23151 9.35253 6.05498L9.35253 6.05223C9.35253 5.91931 9.48896 5.99513 9.82233 6.18039C9.91354 6.23107 10.0195 6.28994 10.1414 6.35498C10.5831 6.59056 11.1779 6.54731 11.6012 6.51653C11.7219 6.50775 11.8287 6.49999 11.914 6.49999C12.2985 6.49999 11.6896 6.05223 11.6896 6.05223C11.6896 6.05223 11.1178 6.05223 10.1414 5.63663C9.165 5.22103 9.35253 4.0851 9.35253 4.0851C9.35253 4.0851 9.64387 3.67932 9.83787 4.0851C10.0319 4.49088 11.2643 5.51261 11.6896 5.51261C11.9545 5.51261 11.9475 5.4273 11.9417 5.35601C11.9381 5.31285 11.935 5.27483 11.9929 5.264C12.1465 5.2353 13.385 5.6535 13.385 5.6535C13.8888 5.68973 13.9665 6.43388 13.9665 6.87442C13.9665 7.31496 14.3383 7.70702 14.9107 7.70702C15.3395 7.70702 15.1666 7.0641 15.0224 6.52762C14.9741 6.34779 14.9289 6.17992 14.9107 6.05223C14.8383 5.54362 13.2554 5.24973 13.2554 5.24973C12.6954 5.16107 12.7865 4.84085 12.7865 4.84085C12.997 4.83314 13.3045 4.70642 13.3045 4.70642C13.6422 4.63047 11.914 4.46158 11.914 4.46158C11.5309 4.4264 11.6896 3.96271 11.6896 3.96271C11.6896 3.75289 11.8551 3.86462 12.0913 4.02414C12.3175 4.1769 12.6087 4.37347 12.8816 4.37347C13.4394 4.37347 12.718 3.96271 12.5172 3.96271C12.4894 3.96271 12.4767 3.96271 12.4767 3.96196C12.4764 3.95728 12.968 3.92348 13.385 3.67932C13.644 3.5277 13.8808 3.61945 14.1856 3.73755C14.4504 3.84018 14.7667 3.96271 15.1935 3.96271C15.7142 3.96271 15.7049 4.28362 15.6934 4.68485C15.6845 4.99098 15.6744 5.34386 15.8972 5.63663C16.2622 6.11621 16.4321 6.20977 16.5 6.2236Z" fill="#1A1A1A"/>
</g>
</svg>

<svg width="32" height="24" fill="none" xmlns="http://www.w3.org/2000/svg">
  <mask id="a" maskUnits="userSpaceOnUse" x="0" y="0" width="32" height="24">
    <path fill="#fff" d="M0 0h32v24H0z"/>
  </mask>
  <g mask="url(#a)" fill-rule="evenodd" clip-rule="evenodd">
    <path d="M0 0h32v24H0V0z" fill="#F50100"/>
    <path d="M16.5 6.224c.068-.014.238-.108.603-.587.223-.293.212-.646.204-.952-.012-.401-.021-.722.5-.722.426 0 .743-.123 1.007-.225.305-.119.542-.21.801-.059.417.244.909.278.908.283h-.04c-.201 0-.922.411-.365.411.273 0 .565-.196.79-.349.237-.16.402-.271.402-.061 0 0 .16.463-.224.499 0 0-1.728.168-1.39.244 0 0 .307.127.517.135 0 0 .092.32-.468.409 0 0-1.583.294-1.656.802-.018.128-.063.296-.111.476-.145.536-.318 1.179.111 1.179.573 0 .945-.392.945-.833 0-.44.077-1.184.581-1.22 0 0 1.239-.419 1.392-.39.058.01.055.049.051.092-.006.071-.012.157.252.157.426 0 1.658-1.022 1.852-1.428.194-.406.486 0 .486 0s.187 1.136-.79 1.552c-.976.415-1.548.415-1.548.415s-.608.448-.224.448c.085 0 .192.008.313.017.423.03 1.018.074 1.46-.162.121-.065.227-.124.319-.175.333-.185.47-.26.47-.128v.003c0 .177 0 1.116-.65 1.116H21.31c-.224 0-.755.32.127.536.883.216 1.167.126 1.56 0s.65-.197.65 0-.538.936-1.002.936c-.27 0-.56-.14-.799-.257-.169-.083-.313-.153-.409-.153-.231 0-.47.41-.351.41.039 0 .107.063.2.147.19.176.487.448.839.448.287 0 .51-.058.711-.111.164-.043.312-.082.467-.082.2 0 .283-.024.319.007.026.023.026.075.026.186 0 .265-.689.557-1.003.557-.142 0-.494-.157-.835-.309-.41-.182-.803-.358-.803-.248 0 .201.83 1.284 1.34 1.284h.956c.345 0 .208.438.208.438s-.334.296-.749.296c-.31 0-.617-.235-.857-.42a3.046 3.046 0 00-.216-.156c-.252-.158-.603-.28-.603 0s.793 1.399 1.435 1.399c.256 0 .487-.042.673-.075.278-.05.454-.08.454.075 0 .258-.299.832-.65.705l-.008-.002c-.36-.13-1.457-.526-1.68-.946-.224-.423-.634-.242-.468 0 .165.243 1.037 1.496 1.679 1.613.17.03.339.051.493.07.425.052.734.09.634.294-.137.277-.705.664-1.003.542-.297-.122-1.314-1.057-1.559-1.446-.244-.39-.872-1.136-.872-.83 0 .065-.012.154-.025.256-.049.374-.119.91.294 1 .524.114.8.619.524.619s-1.262-.237-1.262-.863c0-.625-.447-.976-.447-.8v.072c-.006.22-.017.67.201.971.245.34-.102.617-.2.479-.098-.139-.519-.78-.519-.904 0-.125-.148-.416-.323-.416-.174 0-.209.304.117.956.327.652 1.131 1.173 1.385 1.173.255 0 0 .585 0 .585l1.73.448s.659-.34.659-.448c0-.109.344-.373.65-.373.305 0 .329.373.164.373-.081 0-.197.07-.313.14-.12.072-.24.145-.328.145-.173 0-.702.37-.702.37h1.178s-.188-.207.306-.207.697.207.697.207-.557.327-.697.327a.936.936 0 00-.136.016 2.24 2.24 0 01-.323.034c-.038-.028-.06-.022-.073 0a2.147 2.147 0 01-.423-.05c-.529-.114.414.237.414.237s-.02-.136.01-.187h.072a.78.78 0 01.153.187c.306.463.352.607 0 .607s-.65-.107-.65-.357-.658-.487-.658-.487l-.848.487s.159.272-.1.357c-.258.086-.623-.04-.623-.126 0-.085.086-.481.306-.481s.886-.363.886-.363l-1.614-.482s-.453.482-.602.482c-.076 0-.226-.308-.39-.644-.155-.32-.323-.667-.452-.797a1.967 1.967 0 01-.222-.294c-.158-.238-.303-.457-.516-.304-.306.22-.427.898 0 1.468.428.571 1.168 1.022 1.374 1.022.206 0 .611.02.611.162 0 .142-.18.725-.61.478-.086-.049-.173-.1-.257-.15-.342-.2-.648-.38-.7-.328-.066.065.203.799.58.974a.9.9 0 00.439.067c.153-.005.252-.01.252.164 0 .308-.266.65-.746.325a3.095 3.095 0 01-.523-.481c-.173-.187-.285-.309-.333-.188-.087.216-.05 1.06.33 1.06.088 0 .17-.004.243-.006.245-.009.4-.014.4.1 0 .149-.088.783-.485.53s-.688-.568-.758-.792c-.072-.223-.496 0-.362.313.134.314.459.947.545.947.087 0-1.007 1.911-1.007 1.911l-.007-2.353-.007 2.353s-1.094-1.911-1.007-1.911c.086 0 .411-.633.545-.947.134-.313-.29-.536-.361-.313-.072.224-.362.539-.76.792-.396.253-.484-.381-.484-.53 0-.114.155-.109.4-.1.074.002.155.005.243.005.38 0 .417-.843.33-1.059-.048-.12-.16 0-.333.188a3.095 3.095 0 01-.523.481c-.48.326-.746-.017-.746-.325 0-.173.099-.17.252-.164a.9.9 0 00.44-.067c.376-.175.645-.91.58-.974-.053-.052-.36.128-.7.329l-.257.15c-.431.246-.611-.337-.611-.479 0-.142.405-.162.61-.162.207 0 .947-.45 1.375-1.022.428-.57.306-1.248 0-1.468-.213-.153-.358.066-.516.304-.069.104-.14.213-.222.294-.129.13-.297.476-.453.797-.163.336-.313.644-.39.644-.148 0-.6-.482-.6-.482l-1.615.482s.667.363.886.363c.22 0 .306.396.306.482 0 .085-.365.21-.623.125-.259-.085-.1-.357-.1-.357l-.848-.487s-.659.237-.659.487-.297.357-.65.357c-.351 0-.305-.144 0-.607a.78.78 0 01.154-.187h.073c.03.051.009.187.009.187s.943-.351.414-.237a2.147 2.147 0 01-.423.05c-.013-.022-.035-.028-.073 0a2.23 2.23 0 01-.323-.034.92.92 0 00-.136-.016c-.14 0-.697-.327-.697-.327s.203-.207.697-.207c.494 0 .306.207.306.207h1.178s-.529-.37-.702-.37c-.087 0-.208-.073-.328-.145-.116-.07-.232-.14-.313-.14-.165 0-.14-.373.165-.373.305 0 .65.264.65.373 0 .108.658.448.658.448l1.73-.448s-.255-.585 0-.585c.254 0 1.058-.521 1.385-1.173.326-.652.291-.956.117-.956-.175 0-.323.291-.323.416 0 .124-.42.765-.519.904-.098.138-.446-.139-.2-.479.218-.3.207-.75.202-.97l-.002-.074c0-.175-.446.176-.446.802 0 .625-.986.862-1.262.862s0-.505.524-.62c.413-.09.343-.625.294-.999a2.264 2.264 0 01-.024-.256c0-.306-.629.44-.873.83-.245.39-1.262 1.324-1.56 1.446-.297.122-.865-.265-1.001-.542-.101-.204.208-.242.633-.294a9.56 9.56 0 00.493-.07c.642-.117 1.514-1.37 1.68-1.613.165-.242-.245-.423-.47 0-.222.42-1.319.816-1.679.946l-.007.002c-.352.127-.65-.447-.65-.705 0-.155.175-.124.453-.075.186.033.417.075.673.075.642 0 1.435-1.12 1.435-1.4 0-.28-.351-.157-.603 0-.063.04-.136.096-.216.158-.24.184-.546.42-.857.42-.415 0-.749-.297-.749-.297s-.136-.438.208-.438h.955c.511 0 1.34-1.083 1.34-1.284 0-.11-.393.066-.802.248-.341.152-.693.309-.835.309-.315 0-1.002-.292-1.002-.557 0-.111 0-.163.025-.186.036-.03.12-.007.32-.007.154 0 .302.04.466.082.2.053.424.111.711.111.352 0 .648-.272.84-.448.092-.084.16-.147.199-.147.12 0-.12-.41-.351-.41-.096 0-.24.07-.41.153-.238.116-.527.257-.798.257-.464 0-1.002-.739-1.002-.936 0-.197.257-.126.65 0s.677.216 1.56 0c.882-.216.351-.536.127-.536h-1.687c-.65 0-.65-.94-.65-1.116v-.003c0-.133.136-.057.47.128.09.051.197.11.318.175.442.236 1.037.192 1.46.162.12-.01.228-.017.313-.017.385 0-.224-.448-.224-.448s-.572 0-1.549-.415c-.976-.416-.788-1.552-.788-1.552s.29-.406.485 0c.194.406 1.426 1.428 1.852 1.428.264 0 .258-.086.252-.157-.004-.043-.007-.081.05-.092.154-.029 1.393.39 1.393.39.504.036.582.78.582 1.22 0 .441.371.833.944.833.428 0 .256-.643.111-1.18-.048-.18-.093-.347-.111-.475-.073-.508-1.656-.802-1.656-.802-.56-.089-.469-.41-.469-.41.211-.007.519-.134.519-.134.337-.076-1.391-.244-1.391-.244-.383-.036-.224-.5-.224-.5 0-.21.165-.097.401.062.227.153.518.35.79.35.558 0-.163-.411-.364-.411l-.04-.001c0-.005.491-.039.908-.283.259-.151.496-.06.8.059.265.102.582.225 1.008.225.521 0 .512.32.5.722-.008.306-.019.659.204.952.365.48.535.573.603.587z" fill="#1A1A1A"/>
  </g>
</svg>
